public/assets/images/Sponsors/Filecoin.svg

<svg width="256" height="74" viewBox="0 0 256 74" fill="none" xmlns="http://www.w3.org/2000/svg">
<path fill-rule="evenodd" clip-rule="evenodd" d="M36.7925 73.6646C16.4854 73.7425 -0.091321 57.1045 0.000378626 36.6586C0.0928418 16.4464 16.5888 -0.121131 37.0336 0.000667289C57.1861 0.120999 73.7376 16.6365 73.5801 37.1436C73.4255 57.2664 57.0413 73.7298 36.7925 73.6646Z" fill="#0090FF"/>
<path fill-rule="evenodd" clip-rule="evenodd" d="M41.3621 33.8559C44.5702 34.3099 47.7059 34.7527 50.9386 35.2102C51.2106 34.236 51.4419 33.4055 51.7069 32.4559C48.3821 31.9632 45.2092 31.4931 41.8022 30.9884C42.9479 26.9285 43.9376 23.0467 45.1754 19.2444C45.5831 17.9929 46.4941 16.8182 47.4226 15.8461C48.6408 14.5721 50.3264 14.8544 51.3582 16.2544C51.7905 16.8407 52.1975 17.4608 52.7156 17.9627C53.377 18.6025 54.3519 18.9136 55.0162 18.2907C55.4527 17.8817 55.4386 16.9195 55.4794 16.196C55.4956 15.9053 55.1533 15.5632 54.9164 15.295C53.7629 13.9872 52.2046 13.5241 50.559 13.4551C46.8877 13.301 44.2532 15.1753 42.1846 18.0084C40.1349 20.8161 39.2358 24.1173 38.2574 27.3797C37.972 28.332 37.7274 29.297 37.4406 30.3422C33.8663 29.8242 30.4375 29.3273 26.9089 28.817C26.7838 29.7707 26.6671 30.6653 26.5427 31.6155C30.0361 32.154 33.3785 32.6685 36.8326 33.2006C36.3701 35.1517 35.9392 36.9726 35.4964 38.8407C32.1083 38.3663 28.896 37.9179 25.6619 37.4646C25.5249 38.5106 25.4215 39.301 25.2992 40.2315C28.5474 40.7285 31.6788 41.2071 34.8314 41.6892C34.8314 42.0454 34.8701 42.2523 34.8251 42.4403C33.8192 46.7331 32.8836 51.045 31.7555 55.3048C31.2163 57.3362 30.3489 59.2971 28.6626 60.7246C27.2744 61.8993 25.7491 61.7029 24.7053 60.2452C24.2336 59.5885 23.84 58.8087 23.2172 58.3483C22.7624 58.0112 21.7502 57.8085 21.4163 58.0787C20.9215 58.4799 20.563 59.3675 20.6052 60.0193C20.641 60.5972 21.1963 61.2729 21.7059 61.6671C23.4231 62.991 25.444 63.1832 27.4916 62.7799C30.9211 62.1034 33.3398 59.9609 34.8391 56.9307C36.0172 54.5489 36.8994 52.0051 37.733 49.4733C38.4879 47.1808 39.0004 44.8081 39.64 42.3896C43.0084 42.8788 46.3099 43.3581 49.6797 43.8473C49.958 42.8844 50.209 42.013 50.4796 41.0748C46.9538 40.556 43.5897 40.0598 40.1967 39.5601C40.6044 37.566 40.9671 35.7901 41.3621 33.8559Z" fill="white"/>
<path d="M99.6894 52.8226V38.4149H115.766V33.6873H99.6894V24.9526H116.757V20.1801H93.9702V52.8226H99.6894ZM125.828 25.583V20.1801H120.469V25.583H125.828ZM125.828 52.8226V28.5996H120.469V52.8226H125.828ZM137.214 52.8226V20.1801H131.855V52.8226H137.214ZM154.116 53.4079C160.331 53.4079 164.023 49.4458 165.104 45.5737H159.835C158.89 47.8699 156.728 48.9505 153.891 48.9505C150.829 48.9505 147.676 46.7443 147.316 42.2419H165.374C165.87 34.1376 161.186 28.0593 153.756 28.0593C146.911 28.0593 141.867 33.2371 141.867 40.531C141.867 47.5098 146.325 53.4079 154.116 53.4079ZM159.925 38.3248H147.316C147.811 33.7774 151.234 32.2466 153.756 32.2466C156.908 32.2466 159.79 34.5428 159.925 38.3248ZM180.633 53.4079C185.812 53.4079 190.81 50.2112 191.891 44.5382H186.667C185.947 47.7799 183.38 48.9505 180.723 48.9505C177.571 48.9505 174.508 46.4742 174.508 40.7111C174.508 34.993 177.481 32.5167 180.858 32.5167C183.785 32.5167 185.992 34.3177 186.487 36.884H191.711C190.765 31.5262 186.172 28.0593 180.858 28.0593C173.608 28.0593 168.969 33.5523 168.969 40.7561C168.969 47.96 173.608 53.4079 180.633 53.4079ZM206.961 53.4079C212.86 53.4079 218.894 49.5358 218.894 40.7561C218.894 32.0214 212.86 28.0593 206.961 28.0593C201.061 28.0593 195.027 32.0214 195.027 40.7561C195.027 49.5358 201.061 53.4079 206.961 53.4079ZM206.961 49.0406C203.538 49.0406 200.566 46.3841 200.566 40.7561C200.566 35.1731 203.538 32.4267 206.961 32.4267C210.383 32.4267 213.355 35.1731 213.355 40.7561C213.355 46.3841 210.383 49.0406 206.961 49.0406ZM229.033 25.583V20.1801H223.674V25.583H229.033ZM229.033 52.8226V28.5996H223.674V52.8226H229.033ZM240.418 52.8226V39.9457C240.418 35.5783 241.905 32.4267 246.048 32.4267C250.191 32.4267 250.641 35.6684 250.641 38.9101V52.8226H256V37.6044C256 31.8413 253.613 28.0593 247.759 28.0593C244.336 28.0593 241.815 29.4551 240.418 31.9764V28.5996H235.06V52.8226H240.418Z" fill="black"/>
</svg>

<svg xmlns="http://www.w3.org/2000/svg" width="256" height="74" fill="none"><path fill="#0090FF" fill-rule="evenodd" d="M36.793 73.665C16.484 73.743-.092 57.105 0 36.659.093 16.446 16.59-.121 37.034 0 57.186.12 73.738 16.637 73.58 37.144c-.154 20.122-16.539 36.586-36.787 36.52" clip-rule="evenodd"/><path fill="#fff" fill-rule="evenodd" d="m41.362 33.856 9.577 1.354.768-2.754-9.905-1.468c1.146-4.06 2.136-7.941 3.373-11.744.408-1.251 1.32-2.426 2.248-3.398 1.218-1.274 2.903-.992 3.935.408.433.587.84 1.207 1.358 1.709.661.64 1.636.95 2.3.328.437-.41.423-1.372.463-2.095.017-.29-.326-.633-.563-.901-1.153-1.308-2.711-1.77-4.357-1.84-3.671-.154-6.306 1.72-8.374 4.553-2.05 2.808-2.95 6.11-3.928 9.372-.285.952-.53 1.917-.816 2.962l-10.532-1.525-.366 2.799 10.29 1.585-1.337 5.64-9.834-1.376-.363 2.766 9.532 1.458c0 .356.04.563-.006.751-1.006 4.293-1.941 8.605-3.07 12.865-.539 2.031-1.406 3.992-3.092 5.42-1.389 1.174-2.914.978-3.958-.48-.471-.656-.865-1.436-1.488-1.897-.455-.337-1.467-.54-1.8-.27-.495.402-.854 1.29-.812 1.941.036.578.591 1.254 1.1 1.648 1.718 1.324 3.739 1.516 5.787 1.113 3.43-.677 5.848-2.82 7.347-5.85 1.178-2.381 2.06-4.925 2.894-7.457.755-2.292 1.267-4.665 1.907-7.083l10.04 1.457.8-2.772-10.283-1.515z" clip-rule="evenodd"/><path fill="#000" d="M99.69 52.823V38.415h16.076v-4.728H99.689v-8.734h17.068V20.18H93.97v32.643zm26.138-27.24V20.18h-5.359v5.403zm0 27.24V28.6h-5.359v24.223zm11.386 0V20.18h-5.359v32.643zm16.902.585c6.215 0 9.907-3.962 10.988-7.834h-5.269c-.945 2.296-3.107 3.377-5.944 3.377-3.062 0-6.215-2.207-6.575-6.71h18.058c.496-8.103-4.188-14.182-11.618-14.182-6.845 0-11.889 5.178-11.889 12.472 0 6.979 4.458 12.877 12.249 12.877m5.809-15.083h-12.609c.495-4.548 3.918-6.078 6.44-6.078 3.152 0 6.034 2.296 6.169 6.078m20.708 15.083c5.179 0 10.177-3.197 11.258-8.87h-5.224c-.72 3.242-3.287 4.413-5.944 4.413-3.152 0-6.215-2.477-6.215-8.24 0-5.718 2.973-8.194 6.35-8.194 2.927 0 5.134 1.8 5.629 4.367h5.224c-.946-5.358-5.539-8.825-10.853-8.825-7.25 0-11.889 5.493-11.889 12.697s4.639 12.652 11.664 12.652m26.328 0c5.899 0 11.933-3.872 11.933-12.652 0-8.735-6.034-12.697-11.933-12.697-5.9 0-11.934 3.962-11.934 12.697 0 8.78 6.034 12.652 11.934 12.652m0-4.367c-3.423 0-6.395-2.657-6.395-8.285 0-5.583 2.972-8.33 6.395-8.33s6.394 2.747 6.394 8.33c0 5.628-2.972 8.285-6.394 8.285m22.072-23.458V20.18h-5.359v5.403zm0 27.24V28.6h-5.359v24.223zm11.385 0V39.946c0-4.368 1.487-7.52 5.63-7.52s4.593 3.242 4.593 6.484v13.913H256V37.604c0-5.763-2.387-9.545-8.241-9.545-3.423 0-5.944 1.396-7.341 3.917V28.6h-5.358v24.223z"/></svg>
